resources/haticons/SVG/settings_cell.svg

<!-- Generated by IcoMoon.io -->
<svg version="1.1" xmlns="http://www.w3.org/2000/svg" width="24" height="24" viewBox="0 0 24 24">
<title>settings_cell</title>
<path d="M15.984 15.984v-12h-7.969v12h7.969zM15.984 0q0.797 0 1.406 0.609t0.609 1.406v15.984q0 0.797-0.609 1.406t-1.406 0.609h-7.969q-0.797 0-1.406-0.609t-0.609-1.406v-15.984q0-0.797 0.609-1.406t1.406-0.609h7.969zM15 24v-2.016h2.016v2.016h-2.016zM11.016 24v-2.016h1.969v2.016h-1.969zM6.984 24v-2.016h2.016v2.016h-2.016z"></path>
</svg>

<svg xmlns="http://www.w3.org/2000/svg" width="24" height="24"><path d="M15.984 15.984v-12H8.015v12h7.969zm0-15.984q.797 0 1.406.609t.609 1.406v15.984q0 .797-.609 1.406t-1.406.609H8.015q-.797 0-1.406-.609T6 17.999V2.015q0-.797.609-1.406T8.015 0h7.969zM15 24v-2.016h2.016V24H15zm-3.984 0v-2.016h1.969V24h-1.969zm-4.032 0v-2.016H9V24H6.984z"/></svg>
